X:1060
T:Messenger, The
R:hornpipe
C:Joel Bernstein
M:C|
K:Eminor
|: E2gf egdB | cEED EFGc | ~B3 A GEED | Eeed BAGF |
E2gf (3efg dB | cEED EFGA | B~E3 c~E3 |1 eBdf e3D :|2 eBdf e3f |
|: g2ag fd ~d2 | efed Bdef | g2ag fd ~d2 | geeg a2ba |
geeg fddf | efed BAGA  | B~E3 c~E3 |1 eBdf e3f :|2 eBdf e4 |
